icons/lines/route-square.svg

<svg xmlns="http://www.w3.org/2000/svg" width="24" height="24" viewBox="0 0 24 24" fill="none" stroke="currentColor" stroke-width="2" stroke-linecap="round" stroke-linejoin="round" >
  <path d="M17.35 9.05001L15.01 16.59C14.45 18.38 11.94 18.41 11.35 16.63L10.65 14.56C10.46 13.99 10.01 13.53 9.43997 13.35L7.35997 12.65C5.58997 12.06 5.61997 9.53001 7.40997 8.99001L14.95 6.64C16.43 6.19 17.82 7.58001 17.35 9.05001Z"/>
  <path d="M9 22H15C20 22 22 20 22 15V9C22 4 20 2 15 2H9C4 2 2 4 2 9V15C2 20 4 22 9 22Z"/>
  </svg>

<svg xmlns="http://www.w3.org/2000/svg" width="24" height="24" viewBox="0 0 24 24" fill="none" stroke="currentColor" stroke-width="2" stroke-linecap="round" stroke-linejoin="round">
  <path d="M15 22c5 0 7-2 7-7V9c0-5-2-7-7-7H9C4 2 2 4 2 9v6c0 5 2 7 7 7z" />
  <path d="M15.01 16.59c-.56 1.79-3.07 1.82-3.66.04l-.7-2.07a1.9 1.9 0 0 0-1.21-1.21l-2.08-.7c-1.77-.59-1.74-3.12.05-3.66l7.54-2.35a2 2 0 0 1 2.4 2.41z" />
</svg>
